X:1
T: The Rollicking Irishman
C:
R:Jig
Q:180
K:D
M:6/8
L:1/16
|A2|d2A2F2 D2F2A2|d2e2d2 c2B2A2|d2c2d2 e2d2e2|f2e2d2 c2B2A2|
d2A2F2 D2F2A2|d2e2d2 c2B2A2|d2c2d2 e2d2e2|f2d2d2 d4:|
|:e2|f2g2f2 f2g2a2|e2f2e2 e4c2|d2c2d2 B2e2d2|c2A2A2 A4A2|
B2G2B2 B2c2d2|A2B2A2 A2B2c2|d2c2d2 e2d2e2|f2d2d2 d4:|
z2|:A2B2A2 A2G2A2|c2B2A2 c2d2e2|A2B2A2 A2G2A2|F2B2A2 G2F2E2|
A2B2A2 A2G2A2|c2B2A2 c2d2e2|f2g2a2 e2d2c2|B2c2A2 G2F2E2:|
|:c2d2e2 e2f2e2|e2f2e2 e2d2c2|d2e2f2 f2g2f2|f2g2f2 f2e2d2|
c2d2e2 e2f2e2|e2f2e2 e2f2g2|a2g2f2 e2d2c2|B2c2A2 G2F2E2:|
